X:046
L:1/16
M:2/4
K:D
V:1
"8va -"A2 | DAFA "-" DAFA "-"| Bcdc "-"BAFA "-"| DAFA "-"DAFA "-"| A,ECE "-"A,ECE "-"|
V:2
"8va -"A2 | FADA "-"FADA "-"| dcBA "-" BcdA "-" | FAdA "-" FAdA "-" | CEGE "-" CEGE "-" |
"-"FADA "-" FADA "-" | dcBA "-" Bcd2 "-|" | abc'a d'bge | f2a2 f2 ::
z2 | z16 "8va" | defe "-"dcBA "-"| GABA "-"GFED "-"| CB,CD "-"C4 "-|" |
z16 | A^GAB cBcA | defd gecA | F2=F2 ^F2 :|]

